X: 1
T: McDermott's
M: 4/4
L: 1/8
R: hornpipe
K: Dmaj
|:dcdA FABA|GFGE C2 ED|CDEF GABc|(3dfe (3dcB A2 fe|
dcdA FABA|GFGE C2 ED|CDEF GABc|1 d2 f2 d2 fe:|2 d2 f2 d2 FG||
|:AFdF AFdF|AFdF A2GF|E=c (3=c=c=c Ec (3=c=c=c|E=c=cB ABAG|
FAdA FAdA|FAdA G2 FG|Eeed cABc|1 d2 f2 d2 FG:|2 d2 f2 d4||
